Static/arrow-down.svg

<svg width="14" height="8" viewBox="0 0 14 8" fill="none" xmlns="http://www.w3.org/2000/svg">
<path d="M13.2052 0.256101C12.8448 -0.0853675 12.2597 -0.085367 11.8993 0.256102L7.65298 4.27889C7.29254 4.62036 6.70746 4.62036 6.34702 4.27889L2.10074 0.256103C1.7403 -0.0853666 1.15522 -0.0853667 0.794784 0.256102L0.269647 0.753599C-0.0898827 1.09421 -0.0898821 1.64579 0.269648 1.9864L6.34702 7.7439C6.70746 8.08537 7.29254 8.08537 7.65298 7.7439L13.7304 1.9864C14.0899 1.64579 14.0899 1.0942 13.7304 0.753598L13.2052 0.256101Z" fill="white"/>
</svg>

<svg width="14" height="8" fill="none" xmlns="http://www.w3.org/2000/svg"><path d="M13.205.256a.96.96 0 0 0-1.306 0L7.653 4.28a.96.96 0 0 1-1.306 0L2.101.256a.96.96 0 0 0-1.306 0L.27.754a.84.84 0 0 0 0 1.232l6.077 5.758a.96.96 0 0 0 1.306 0l6.077-5.758a.84.84 0 0 0 0-1.232l-.525-.498Z" fill="#fff"/></svg>
